src/pos-icons/vibrate.svg

<svg height="24" viewBox="0 0 24 24" width="24" xmlns="http://www.w3.org/2000/svg"><path d="m16 19h-8v-14h8m.5-2h-9a1.5 1.5 0 0 0 -1.5 1.5v15a1.5 1.5 0 0 0 1.5 1.5h9a1.5 1.5 0 0 0 1.5-1.5v-15a1.5 1.5 0 0 0 -1.5-1.5m2.5 14h2v-10h-2m3 2v6h2v-6m-21 8h2v-10h-2m-3 8h2v-6h-2z"/></svg>

<?xml version="1.0" encoding="UTF-8"?><!DOCTYPE svg PUBLIC "-//W3C//DTD SVG 1.1//EN" "http://www.w3.org/Graphics/SVG/1.1/DTD/svg11.dtd"><svg xmlns="http://www.w3.org/2000/svg" xmlns:xlink="http://www.w3.org/1999/xlink" version="1.1" id="mdi-vibrate" width="24" height="24" viewBox="0 0 24 24"><path d="M16,19H8V5H16M16.5,3H7.5A1.5,1.5 0 0,0 6,4.5V19.5A1.5,1.5 0 0,0 7.5,21H16.5A1.5,1.5 0 0,0 18,19.5V4.5A1.5,1.5 0 0,0 16.5,3M19,17H21V7H19M22,9V15H24V9M3,17H5V7H3M0,15H2V9H0V15Z" /></svg>
